X: 89
T: Walker Street (Carpenter's Reel)
B: NEFR #89
B: Ryan’s "Mammoth Collection", 1883; p.72
B: Kohler’s "Violin Repository", 1881-5
B: White’s Unique Collection, 1896; No. 41, p.8
B: Cole p.45
Z: John Chambers <jc:trillian.mit.edu>
M: C|
L: 1/8
K: G
|: "G"G2 BG dG BG | "D7"AB cd cB AG | "G"Bd gd eg dB | "C"cB AG "D7"FA DF |
|  "G"G2 BG dG BG | "D7"AB cd cB AG | "G"Bd gd eg dB | "D7"cA FA "G"G4 :|
|: "G"g2 dg Bg dg | "G"ga bg "D7"ag ef | "G"g2 dg Bg dg | "C"cB AG "D7"FA D2 |
|  "G"g2 dg Bg dg | "G"ga bg "D7"ag ef | "C"gf ga "(G)"gf ed | "C"eg "D7"fa "G"g4 :|


